assets/svg/1F436.svg

<svg xmlns="http://www.w3.org/2000/svg" viewBox="0 0 64 64" enable-background="new 0 0 64 64"><g transform="translate(0 2)"><g fill="#d1d2d3"><path d="m5.193 38.562c0 10.824 12.08 19.589 27 19.589 14.92 0 27-8.765 27-19.589 0-10.816-12.08-37.5-27-37.5-14.92 0-27 26.684-27 37.5"/><path d="m46.2 10.161c0-5.616-6.268-10.161-14.01-10.161-7.736 0-14 4.545-14 10.161 0 5.609 6.269 19.446 14 19.446 7.737 0 14.01-13.837 14.01-19.446"/></g><path d="m28.12 49.23c-8.406-6.323-15.04-16.08-11.373-27.09 2.536-7.604 7.224-14.13 10.197-21.42-4.547 1.301-7.931 4.274-8.7 7.884-7.893 8.726-13.18 22.812-13.18 29.964 0 10.824 12.08 19.589 27 19.589 4.433 0 8.604-.789 12.294-2.159-6.02-1.07-11.751-3.39-16.24-6.766" fill="#bcbdbf"/><path d="m12.6 41.995c0-9.266 7.885-9.09 18.635-9.09 10.756 0 20.308-.173 20.308 9.09 0 9.276-8.721 16.793-19.47 16.793-10.749 0-19.473-7.517-19.473-16.793" fill="#c2986b"/><g fill="#25333a"><path d="m26.663 37.854c0-2.633 2.239-2.584 5.294-2.584 3.057 0 5.772-.049 5.772 2.584 0 2.636-2.479 4.771-5.534 4.771-3.054.0001-5.532-2.135-5.532-4.771"/><ellipse cx="22.812" cy="27.333" rx="4.266" ry="5.171"/><ellipse cx="40.33" cy="27.333" rx="4.265" ry="5.171"/></g><path d="m.015 18.31c-.543-5.499 13.843-14.846 17.705-15.229 3.866-.389.573 10.764-.471 17.12-1.074 6.543-1.819 13.21-5.686 13.591-3.859.38-11.01-9.997-11.548-15.482" fill="#424143"/><path d="m13.624 4.658c-5.666 2.964-14.03 9.433-13.609 13.652.541 5.485 7.688 15.862 11.549 15.482.351-.034.667-.138.968-.27-.592-.668-13.158-15.08 1.092-28.864" fill="#2c2c2d"/><path d="m64.13 18.31c.543-5.499-13.843-14.846-17.705-15.229-3.867-.389-.573 10.764.471 17.12 1.073 6.543 1.818 13.21 5.685 13.591 3.859.38 11.01-9.997 11.549-15.482" fill="#424143"/><path d="m38.887 54.673c-.244-.725-1.302-1.025-2.359-.669l-4.253 1.435-.936-3.687c-.252-.997-.967-1.683-1.596-1.522-.629.16-.934 1.102-.681 2.104l1.078 4.247c.088.345.242.629.418.878.002.008-.002.016 0 .023.245.726 1.302 1.021 2.362.661l4.493-1.515c1.058-.357 1.719-1.233 1.474-1.955" fill="#a98461"/></g></svg>

<?xml version="1.0" encoding="UTF-8" standalone="no"?>
<!-- Generator: Adobe Illustrator 16.0.0, SVG Export Plug-In . SVG Version: 6.00 Build 0)  -->

<svg
   xmlns:dc="http://purl.org/dc/elements/1.1/"
   xmlns:cc="http://creativecommons.org/ns#"
   xmlns:rdf="http://www.w3.org/1999/02/22-rdf-syntax-ns#"
   xmlns:svg="http://www.w3.org/2000/svg"
   xmlns="http://www.w3.org/2000/svg"
   xmlns:sodipodi="http://sodipodi.sourceforge.net/DTD/sodipodi-0.dtd"
   xmlns:inkscape="http://www.inkscape.org/namespaces/inkscape"
   version="1.1"
   id="Layer_1"
   x="0px"
   y="0px"
   width="64px"
   height="64px"
   viewBox="0 0 64 64"
   enable-background="new 0 0 64 64"
   xml:space="preserve"
   inkscape:version="0.48.5 r10040"
   sodipodi:docname="1F436.svg"
   inkscape:export-filename="D:\TESTINGEMOJI\SVGTEST\1F436.png"
   inkscape:export-xdpi="90"
   inkscape:export-ydpi="90"><metadata
   id="metadata6017"><rdf:RDF><cc:Work
       rdf:about=""><dc:format>image/svg+xml</dc:format><dc:type
         rdf:resource="http://purl.org/dc/dcmitype/StillImage" /><dc:title></dc:title></cc:Work></rdf:RDF></metadata><defs
   id="defs6015" /><sodipodi:namedview
   pagecolor="#ffffff"
   bordercolor="#666666"
   borderopacity="1"
   objecttolerance="10"
   gridtolerance="10"
   guidetolerance="10"
   inkscape:pageopacity="0"
   inkscape:pageshadow="2"
   inkscape:window-width="640"
   inkscape:window-height="480"
   id="namedview6013"
   showgrid="false"
   inkscape:zoom="3.6875"
   inkscape:cx="32"
   inkscape:cy="32"
   inkscape:window-x="468"
   inkscape:window-y="238"
   inkscape:window-maximized="0"
   inkscape:current-layer="Layer_1" />
<g
   id="g5989"
   transform="translate(0,2)">
	<path
   d="m 5.193,38.562 c 0,10.824 12.082,19.589 27.002,19.589 14.92,0 27.002,-8.765 27.002,-19.589 0,-10.816 -12.082,-37.5 -27.002,-37.5 -14.92,0 -27.002,26.684 -27.002,37.5 z"
   id="path5991"
   inkscape:connector-curvature="0"
   style="fill:#d1d2d3" />
	<path
   d="M 46.201,10.161 C 46.201,4.545 39.933,0 32.196,0 24.46,0 18.191,4.545 18.191,10.161 c 0,5.609 6.269,19.446 14.005,19.446 7.737,0 14.005,-13.837 14.005,-19.446 z"
   id="path5993"
   inkscape:connector-curvature="0"
   style="fill:#d1d2d3" />
	<path
   d="M 28.125,49.226 C 19.719,42.903 13.082,33.146 16.752,22.134 19.288,14.53 23.976,8.002 26.949,0.714 c -4.547,1.301 -7.931,4.274 -8.7,7.884 -7.893,8.726 -13.18,22.812 -13.18,29.964 0,10.824 12.082,19.589 27.002,19.589 4.433,0 8.604,-0.789 12.294,-2.159 -6.017,-1.07 -11.751,-3.39 -16.24,-6.766 z"
   id="path5995"
   inkscape:connector-curvature="0"
   style="fill:#bcbdbf" />
	<path
   d="m 12.6,41.995 c 0,-9.266 7.885,-9.093 18.635,-9.093 10.756,0 20.308,-0.173 20.308,9.093 0,9.276 -8.721,16.793 -19.47,16.793 C 21.324,58.788 12.6,51.271 12.6,41.995 z"
   id="path5997"
   inkscape:connector-curvature="0"
   style="fill:#c2986b" />
	<path
   d="m 26.663,37.854 c 0,-2.633 2.239,-2.584 5.294,-2.584 3.057,0 5.772,-0.049 5.772,2.584 0,2.636 -2.479,4.771 -5.534,4.771 -3.054,10e-4 -5.532,-2.135 -5.532,-4.771 z"
   id="path5999"
   inkscape:connector-curvature="0"
   style="fill:#25333a" />
	<ellipse
   cx="22.812"
   cy="27.333"
   rx="4.2659998"
   ry="5.171"
   id="ellipse6001"
   sodipodi:cx="22.812"
   sodipodi:cy="27.333"
   sodipodi:rx="4.2659998"
   sodipodi:ry="5.171"
   style="fill:#25333a"
   d="m 27.078,27.333 c 0,2.855865 -1.909953,5.171 -4.266,5.171 -2.356046,0 -4.266,-2.315135 -4.266,-5.171 0,-2.855864 1.909954,-5.171 4.266,-5.171 2.356047,0 4.266,2.315136 4.266,5.171 z" />
	<ellipse
   cx="40.327999"
   cy="27.333"
   rx="4.2649999"
   ry="5.171"
   id="ellipse6003"
   sodipodi:cx="40.327999"
   sodipodi:cy="27.333"
   sodipodi:rx="4.2649999"
   sodipodi:ry="5.171"
   style="fill:#25333a"
   d="m 44.592999,27.333 c 0,2.855865 -1.909506,5.171 -4.265,5.171 -2.355494,0 -4.265,-2.315135 -4.265,-5.171 0,-2.855864 1.909506,-5.171 4.265,-5.171 2.355494,0 4.265,2.315136 4.265,5.171 z" />
	<path
   d="M 0.015,18.31 C -0.528,12.811 13.858,3.464 17.72,3.081 21.586,2.692 18.293,13.845 17.249,20.201 16.175,26.744 15.43,33.411 11.563,33.792 7.704,34.172 0.556,23.795 0.015,18.31 z"
   id="path6005"
   inkscape:connector-curvature="0"
   style="fill:#424143" />
	<path
   d="M 13.624,4.658 C 7.958,7.622 -0.402,14.091 0.015,18.31 c 0.541,5.485 7.688,15.862 11.549,15.482 0.351,-0.034 0.667,-0.138 0.968,-0.27 C 11.94,32.854 -0.626,18.437 13.624,4.658 z"
   id="path6007"
   inkscape:connector-curvature="0"
   style="fill:#2c2c2d" />
	<path
   d="M 64.129,18.31 C 64.672,12.811 50.286,3.464 46.424,3.081 c -3.867,-0.389 -0.573,10.764 0.471,17.12 1.073,6.543 1.818,13.21 5.685,13.591 3.859,0.38 11.008,-9.997 11.549,-15.482 z"
   id="path6009"
   inkscape:connector-curvature="0"
   style="fill:#424143" />
	<path
   d="m 38.887,54.673 c -0.244,-0.725 -1.302,-1.025 -2.359,-0.669 l -4.253,1.435 -0.936,-3.687 c -0.252,-0.997 -0.967,-1.683 -1.596,-1.522 -0.629,0.16 -0.934,1.102 -0.681,2.104 l 1.078,4.247 c 0.088,0.345 0.242,0.629 0.418,0.878 0.002,0.008 -0.002,0.016 0,0.023 0.245,0.726 1.302,1.021 2.362,0.661 l 4.493,-1.515 c 1.058,-0.357 1.719,-1.233 1.474,-1.955 z"
   id="path6011"
   inkscape:connector-curvature="0"
   style="fill:#a98461" />
</g>
</svg>
